static/assets/images/networks/cardano.svg

<svg width="256" height="256" viewBox="0 0 256 256" fill="none" xmlns="http://www.w3.org/2000/svg">
<path d="M128 256C198.692 256 256 198.692 256 128C256 57.3075 198.692 0 128 0C57.3075 0 0 57.3075 0 128C0 198.692 57.3075 256 128 256Z" fill="#4176FF"/>
<path d="M84.6603 127.358C84.251 134.492 89.726 140.599 96.8384 141.01C97.0943 141.01 97.3501 141.01 97.606 141.01C104.77 141.01 110.552 135.21 110.5 128.026C110.5 120.841 104.718 115.042 97.5548 115.093C90.6982 115.093 85.0185 120.482 84.6603 127.358Z" fill="white"/>
<path d="M36.4597 124.023C34.1571 123.869 32.1615 125.665 32.0592 127.974C31.9568 130.284 33.6966 132.285 35.9991 132.388C38.3017 132.542 40.2461 130.746 40.3996 128.436C40.5531 126.127 38.7622 124.177 36.4597 124.023Z" fill="white"/>
<path d="M83.8416 52.1235C85.8884 51.0971 86.7071 48.5311 85.6837 46.4783C84.6603 44.4255 82.1019 43.6044 80.0552 44.6308C78.0084 45.6572 77.1897 48.1718 78.2131 50.2246C79.2365 52.3288 81.7437 53.2012 83.8416 52.1235Z" fill="white"/>
<path d="M96.9408 75.0635C100.113 73.4726 101.392 69.5722 99.8062 66.3904C98.22 63.2086 94.3312 61.9256 91.1587 63.5165C87.9863 65.1074 86.7071 69.0077 88.2933 72.1896C89.8795 75.3714 93.7683 76.6544 96.9408 75.0635Z" fill="white"/>
<path d="M52.8336 90.8187C55.2897 92.4096 58.5644 91.7425 60.2018 89.2791C61.788 86.8157 61.1229 83.5313 58.6668 81.889C56.2107 80.2981 52.9359 80.9653 51.2985 83.4286C49.6611 85.892 50.3775 89.2278 52.8336 90.8187Z" fill="white"/>
<path d="M60.6623 121.713C57.0806 121.508 54.0616 124.228 53.8569 127.82C53.6523 131.413 56.3642 134.441 59.946 134.646C63.5278 134.851 66.5467 132.131 66.7514 128.539C66.9561 124.998 64.2441 121.919 60.6623 121.713Z" fill="white"/>
<path d="M53.5499 165.181C50.9403 166.516 49.8658 169.697 51.1962 172.366C52.5266 174.983 55.699 176.061 58.3598 174.727C60.9694 173.392 62.0439 170.211 60.7135 167.542C59.3831 164.925 56.1595 163.847 53.5499 165.181Z" fill="white"/>
<path d="M78.6225 108.319C82.1531 110.628 86.8606 109.653 89.112 106.112C91.4146 102.571 90.4424 97.8495 86.9117 95.5915C83.3811 93.2821 78.6736 94.2571 76.4222 97.7982C74.1196 101.288 75.0918 106.009 78.6225 108.319Z" fill="white"/>
<path d="M158.189 74.5503C161.157 76.5004 165.199 75.6793 167.144 72.7028C169.088 69.7262 168.27 65.6719 165.302 63.7218C162.334 61.7716 158.292 62.5927 156.347 65.5693C154.352 68.5972 155.17 72.6001 158.189 74.5503Z" fill="white"/>
<path d="M171.391 51.7129C173.335 52.9959 175.894 52.4314 177.173 50.4812C178.452 48.5311 177.889 45.9651 175.945 44.6821C174 43.3991 171.442 43.9636 170.163 45.8624C168.935 47.8126 169.498 50.4299 171.391 51.7129Z" fill="white"/>
<path d="M159.162 114.99C152.049 114.58 145.909 120.071 145.551 127.205C145.141 134.338 150.616 140.496 157.729 140.856C157.985 140.856 158.241 140.856 158.445 140.856C165.558 140.856 171.34 135.056 171.34 127.872C171.391 121.046 166.018 115.35 159.162 114.99Z" fill="white"/>
<path d="M101.188 107.395C103.388 111.757 107.84 114.529 112.752 114.529C119.864 114.529 125.646 108.729 125.646 101.545C125.646 99.5431 125.186 97.5416 124.265 95.6941C121.041 89.2791 113.263 86.7131 106.919 89.9463C100.523 93.2307 97.9641 101.031 101.188 107.395Z" fill="white"/>
<path d="M202.45 90.8187C205.06 89.4844 206.083 86.2512 204.753 83.6339C203.422 81.0166 200.199 79.9902 197.589 81.3245C194.979 82.6588 193.956 85.8407 195.235 88.458C196.617 91.0753 199.789 92.153 202.45 90.8187Z" fill="white"/>
<path d="M169.702 94.9243C165.967 96.8231 164.432 101.391 166.325 105.137C168.218 108.883 172.772 110.423 176.508 108.524C180.243 106.625 181.778 102.058 179.885 98.3114C177.992 94.5651 173.438 93.0768 169.702 94.9243Z" fill="white"/>
<path d="M127.488 49.7628C130.405 49.9167 132.912 47.6586 133.117 44.7334C133.322 41.8082 131.019 39.2935 128.102 39.0882C125.186 38.9342 122.678 41.141 122.474 44.0662C122.32 47.0428 124.572 49.5575 127.488 49.7628Z" fill="white"/>
<path d="M127.437 83.2747C131.633 83.5313 135.215 80.2981 135.419 76.0899C135.675 71.8816 132.452 68.2892 128.256 68.084C124.06 67.8274 120.478 71.0605 120.274 75.2688C120.069 79.477 123.241 83.0694 127.437 83.2747Z" fill="white"/>
<path d="M86.2977 161.076C90.033 159.177 91.5681 154.609 89.6748 150.863C87.7816 147.117 83.2276 145.577 79.4923 147.476C75.757 149.375 74.222 153.942 76.1152 157.689C78.0084 161.435 82.5624 162.975 86.2977 161.076Z" fill="white"/>
<path d="M132.349 94.4111C128.461 100.416 130.098 108.421 136.085 112.322C142.071 116.222 150.054 114.58 153.942 108.575C157.831 102.571 156.194 94.5651 150.207 90.6647C148.109 89.2791 145.653 88.5606 143.146 88.5606C138.797 88.5606 134.754 90.7674 132.349 94.4111Z" fill="white"/>
<path d="M154.812 148.605C151.589 142.19 143.811 139.624 137.466 142.857C131.07 146.09 128.512 153.891 131.735 160.255C134.959 166.67 142.737 169.236 149.081 166.002C155.426 162.821 158.036 155.123 154.863 148.708C154.863 148.656 154.863 148.656 154.812 148.605Z" fill="white"/>
<path d="M177.378 147.681C173.847 145.372 169.139 146.347 166.888 149.888C164.585 153.429 165.558 158.15 169.088 160.409C172.619 162.718 177.326 161.743 179.578 158.202C181.88 154.712 180.908 149.991 177.378 147.681Z" fill="white"/>
<path d="M202.143 128.231C202.348 124.639 199.636 121.611 196.054 121.405C192.472 121.2 189.453 123.92 189.249 127.512C189.044 131.105 191.756 134.133 195.338 134.338C198.868 134.543 201.938 131.772 202.143 128.231Z" fill="white"/>
<path d="M220.001 123.612C217.698 123.458 215.703 125.254 215.6 127.564C215.498 129.873 217.238 131.875 219.54 131.977C221.843 132.131 223.787 130.335 223.941 128.026C224.043 125.716 222.303 123.766 220.001 123.612Z" fill="white"/>
<path d="M203.166 165.181C200.71 163.59 197.436 164.258 195.798 166.721C194.212 169.184 194.877 172.469 197.333 174.111C199.789 175.702 203.064 175.035 204.701 172.571C206.339 170.108 205.623 166.772 203.166 165.181Z" fill="white"/>
<path d="M84.558 204.287C82.6136 203.004 80.0552 203.569 78.776 205.467C77.4968 207.418 78.0596 209.984 79.9528 211.267C81.8972 212.55 84.4557 211.985 85.7349 210.086C87.0653 208.187 86.5024 205.57 84.558 204.287Z" fill="white"/>
<path d="M172.158 203.877C170.112 204.903 169.293 207.469 170.316 209.522C171.34 211.575 173.898 212.396 175.945 211.369C177.992 210.343 178.81 207.828 177.787 205.775C176.764 203.671 174.256 202.799 172.158 203.877Z" fill="white"/>
<path d="M123.651 161.589C127.539 155.584 125.902 147.579 119.915 143.627C113.929 139.727 105.946 141.369 102.006 147.373C98.0665 153.378 99.755 161.384 105.742 165.335C107.84 166.721 110.296 167.439 112.803 167.439C117.203 167.491 121.246 165.284 123.651 161.589Z" fill="white"/>
<path d="M97.8106 181.45C94.8429 179.5 90.8005 180.321 88.8561 183.297C86.9117 186.274 87.7304 190.328 90.6982 192.278C93.666 194.228 97.7083 193.407 99.6527 190.431C101.648 187.454 100.83 183.4 97.8106 181.45Z" fill="white"/>
<path d="M127.949 206.237C125.032 206.083 122.525 208.341 122.32 211.267C122.116 214.192 124.418 216.707 127.335 216.912C130.251 217.066 132.759 214.859 132.963 211.934C133.117 208.957 130.865 206.443 127.949 206.237Z" fill="white"/>
<path d="M128 172.725C123.804 172.469 120.222 175.702 120.018 179.91C119.762 184.118 122.985 187.711 127.181 187.916C131.377 188.121 134.959 184.939 135.164 180.731C135.419 176.574 132.196 172.931 128 172.725Z" fill="white"/>
<path d="M159.059 180.937C155.887 182.579 154.608 186.479 156.245 189.661C157.882 192.843 161.771 194.126 164.944 192.483C168.116 190.893 169.395 186.992 167.809 183.81C166.172 180.629 162.283 179.294 159.059 180.937Z" fill="white"/>
</svg>

<svg xmlns="http://www.w3.org/2000/svg" fill="none" viewBox="0 0 256 256"><path fill="#4176FF" d="M128 256c70.692 0 128-57.308 128-128S198.692 0 128 0 0 57.308 0 128s57.308 128 128 128"/><path fill="#fff" d="M84.66 127.358c-.409 7.134 5.066 13.241 12.178 13.652h.768a12.87 12.87 0 0 0 12.894-12.984c0-7.185-5.782-12.984-12.945-12.933-6.857 0-12.537 5.389-12.895 12.265m-48.2-3.335c-2.303-.154-4.299 1.642-4.4 3.951-.103 2.31 1.637 4.311 3.94 4.414 2.302.154 4.246-1.642 4.4-3.952s-1.638-4.259-3.94-4.413m47.382-71.899c2.046-1.027 2.865-3.593 1.842-5.646s-3.582-2.874-5.629-1.847c-2.047 1.026-2.865 3.54-1.842 5.594 1.024 2.104 3.53 2.976 5.629 1.898M96.94 75.064c3.173-1.591 4.452-5.492 2.866-8.674s-5.475-4.464-8.647-2.873c-3.173 1.59-4.452 5.49-2.866 8.673 1.586 3.181 5.475 4.464 8.648 2.874M52.834 90.819a5.34 5.34 0 0 0 7.368-1.54 5.377 5.377 0 0 0-1.535-7.39 5.34 5.34 0 0 0-7.369 1.54c-1.637 2.463-.92 5.799 1.536 7.39m7.828 30.894c-3.581-.205-6.6 2.515-6.805 6.107a6.44 6.44 0 0 0 6.089 6.826c3.582.205 6.6-2.515 6.805-6.107a6.474 6.474 0 0 0-6.089-6.826m-7.112 43.468a5.36 5.36 0 0 0-2.354 7.185 5.33 5.33 0 0 0 7.164 2.361 5.36 5.36 0 0 0 2.354-7.185c-1.33-2.617-4.554-3.695-7.164-2.361m25.073-56.862c3.53 2.309 8.238 1.334 10.489-2.207 2.303-3.541 1.33-8.262-2.2-10.52-3.53-2.31-8.238-1.335-10.49 2.206-2.302 3.49-1.33 8.211 2.2 10.521m79.567-33.769c2.968 1.95 7.01 1.13 8.955-1.847 1.944-2.977 1.126-7.031-1.842-8.981s-7.01-1.13-8.955 1.847c-1.995 3.028-1.177 7.031 1.842 8.981m13.202-22.837c1.944 1.283 4.503.718 5.782-1.232s.716-4.516-1.228-5.799c-1.945-1.283-4.503-.718-5.782 1.18-1.228 1.95-.665 4.568 1.228 5.85m-12.229 63.278c-7.113-.41-13.253 5.081-13.611 12.215-.41 7.133 5.065 13.291 12.178 13.651h.716c7.113 0 12.895-5.8 12.895-12.984.051-6.826-5.322-12.522-12.178-12.882m-57.974-7.595a12.94 12.94 0 0 0 11.564 7.134c7.112 0 12.894-5.8 12.894-12.984 0-2.002-.46-4.003-1.381-5.85-3.224-6.416-11.002-8.982-17.346-5.749-6.396 3.285-8.955 11.085-5.731 17.449M202.45 90.819c2.61-1.335 3.633-4.568 2.303-7.185s-4.554-3.644-7.164-2.31-3.633 4.517-2.354 7.134c1.382 2.617 4.554 3.695 7.215 2.36m-32.748 4.106c-3.735 1.9-5.27 6.467-3.377 10.213s6.447 5.286 10.183 3.387 5.27-6.466 3.377-10.213-6.447-5.234-10.183-3.387m-42.214-45.161c2.917.154 5.424-2.104 5.629-5.03.205-2.925-2.098-5.44-5.015-5.645a5.356 5.356 0 0 0-5.628 4.978c-.154 2.977 2.098 5.491 5.014 5.697m-.051 33.512c4.196.256 7.778-2.977 7.982-7.185a7.55 7.55 0 0 0-7.163-8.006c-4.196-.257-7.778 2.977-7.982 7.185s2.967 7.8 7.163 8.006m-41.139 77.801c3.735-1.899 5.27-6.467 3.377-10.213s-6.447-5.286-10.183-3.387-5.27 6.466-3.377 10.213 6.447 5.286 10.183 3.387m46.051-66.665c-3.888 6.005-2.251 14.01 3.736 17.911 5.986 3.9 13.969 2.258 17.857-3.747 3.889-6.004 2.252-14.01-3.735-17.91a12.8 12.8 0 0 0-7.061-2.104c-4.349 0-8.392 2.206-10.797 5.85m22.463 54.194c-3.223-6.415-11.001-8.981-17.346-5.748-6.396 3.233-8.954 11.034-5.731 17.398 3.224 6.415 11.002 8.981 17.346 5.747 6.345-3.181 8.955-10.879 5.782-17.294 0-.052 0-.052-.051-.103m22.566-.924c-3.531-2.309-8.239-1.334-10.49 2.207-2.303 3.541-1.33 8.262 2.2 10.521 3.531 2.309 8.238 1.334 10.49-2.207 2.302-3.49 1.33-8.211-2.2-10.521m24.765-19.45a6.443 6.443 0 0 0-6.089-6.826c-3.582-.205-6.601 2.515-6.805 6.107a6.44 6.44 0 0 0 6.089 6.826c3.53.205 6.6-2.566 6.805-6.107m17.858-4.619c-2.303-.154-4.298 1.642-4.401 3.952s1.638 4.311 3.94 4.413c2.303.154 4.247-1.642 4.401-3.951a4.22 4.22 0 0 0-3.94-4.414m-16.835 41.569a5.34 5.34 0 0 0-7.368 1.54 5.377 5.377 0 0 0 1.535 7.39 5.34 5.34 0 0 0 7.368-1.54c1.638-2.463.922-5.799-1.535-7.39M84.558 204.287c-1.944-1.283-4.503-.718-5.782 1.18-1.28 1.951-.716 4.517 1.177 5.8 1.944 1.283 4.503.718 5.782-1.181 1.33-1.899.767-4.516-1.177-5.799m87.6-.41c-2.046 1.026-2.865 3.592-1.842 5.645s3.582 2.874 5.629 1.847c2.047-1.026 2.865-3.541 1.842-5.594-1.023-2.104-3.531-2.976-5.629-1.898m-48.507-42.288c3.888-6.005 2.251-14.01-3.736-17.962a12.93 12.93 0 0 0-17.909 3.746c-3.94 6.005-2.251 14.011 3.736 17.962a12.8 12.8 0 0 0 7.061 2.104c4.4.052 8.443-2.155 10.848-5.85M97.81 181.45c-2.967-1.95-7.01-1.129-8.954 1.847s-1.126 7.031 1.842 8.981 7.01 1.129 8.955-1.847c1.995-2.977 1.177-7.031-1.842-8.981m30.138 24.787c-2.917-.154-5.424 2.104-5.629 5.03-.204 2.925 2.098 5.44 5.015 5.645a5.356 5.356 0 0 0 5.628-4.978c.154-2.977-2.098-5.491-5.014-5.697m.051-33.512c-4.196-.256-7.778 2.977-7.982 7.185-.256 4.208 2.967 7.801 7.163 8.006s7.778-2.977 7.983-7.185c.255-4.157-2.968-7.8-7.164-8.006m31.059 8.212c-3.172 1.642-4.451 5.542-2.814 8.724s5.526 4.465 8.699 2.822c3.172-1.59 4.451-5.491 2.865-8.673-1.637-3.181-5.526-4.516-8.75-2.873"/></svg>
